X:70
%%score 1 2
T:With my flock as walked I.
M:6/8
L:1/8
K:Bb
V:1 clef-treble
V:2 clef-bass octave=-1
V:1
[Dd]2G[C^F]2[B,G]|A2G ^F>=ED&E3A,3|B>A[DG][CF]2[B,G]&[DF]2x4|[C^FA]3[B,G]3|
w:With my flock as walk-ed I,* The plains* and mount-ains o ver
V:2
B3A2G|C3D3|D>CB,A,2G,|D,3G,3|
V:1
d2G[C^F]2[B,G]&D3x3|A2G (^F=ED)&E3A,3|B>A[DG][CF]2[B,DG]&[D^F]2x4|[C^FA]3[B,G]2d|
w:Late, a dam-sel pass'd me by;** With an in-tent to move her, I
V:2
B3A2G|C3D3|D>CB,A,2G,|D3G3|
V:1
=f>e[FBe][FAc]2[EA]&[=FBd]2x4|[DB]2[Gc][^FAd]2d|[Gd]2G[C^F]2[B,G]|[C^FA]3[B,G]3||
w:stept in her way; She stept a-wry, But oh! I~shall e-ver love her.
V:2
G2DF2F|G2ED2C|B,3A,2G,|D,3G,3||


